packages/tokens/icons/bubble/size24Px.svg

<svg viewBox="0 0 24 24" fill="none" xmlns="http://www.w3.org/2000/svg" width="1em" height="1em"><path d="M3.5 4.41928C3.5 3.93727 3.9213 3.5 4.5 3.5L19.5 3.5C20.0787 3.5 20.5 3.93727 20.5 4.41928V16.9921C20.5 17.4415 20.1144 17.8392 19.5 17.8392H8.69982C8.06479 17.8392 7.45357 18.0808 6.99023 18.5151L5.17928 20.2124C4.83505 20.5068 4.40175 20.5615 4.06959 20.4385C3.7567 20.3227 3.5 20.0389 3.5 19.5381L3.5 4.41928Z" stroke="currentColor" stroke-linecap="round" stroke-linejoin="round"/></svg>

<svg xmlns="http://www.w3.org/2000/svg" fill="none" viewBox="0 0 24 24" width="1em" height="1em"><path stroke="currentColor" stroke-linecap="round" stroke-linejoin="round" d="M3.5 4.42c0-.483.421-.92 1-.92h15c.579 0 1 .437 1 .92v12.572c0 .45-.386.847-1 .847H8.7a2.5 2.5 0 0 0-1.71.676l-1.81 1.697c-.345.295-.778.35-1.11.227-.313-.116-.57-.4-.57-.9V4.418Z"/></svg>
